data/chains/V2/wax/wax.branded.svg

<svg width="24" height="24" viewBox="0 0 24 24" fill="none" xmlns="http://www.w3.org/2000/svg">
<path d="M20.0417 9.91673L19.0833 10.7376L20.0625 11.5834L22 9.91673H20.0417ZM14.0833 8.66675L17.7916 11.9792L16.375 12.8334L13.875 9.91673H12.2084L7.83333 15.3334H9.49999L13.0417 11.1667L14.15 12.4167H12.8333L12 13.2501H14.775L15.5416 14.0834H17.2083L18.875 12.8334L20.3333 14.0834H22L15.75 8.66675H14.0833ZM8.66666 9.91673L7.83333 12.4167L6.99999 9.91673H5.33333L4.5 12.4167L3.66666 9.91673H2L3.66666 14.0834H5.33333L6.16666 11.5834L6.99999 14.0834H8.66666L10.3333 9.91673H8.66666Z" fill="#F78E1E"/>
</svg>

<svg xmlns="http://www.w3.org/2000/svg" width="24" height="24" fill="none" viewBox="0 0 24 24">
    <path fill="#F78E1E" d="m20.042 9.917-.959.82.98.846L22 9.917zm-5.959-1.25 3.709 3.312-1.417.854-2.5-2.916h-1.667l-4.375 5.416H9.5l3.542-4.166 1.108 1.25h-1.317L12 13.25h2.775l.767.833h1.666l1.667-1.25 1.458 1.25H22l-6.25-5.416zm-5.416 1.25-.834 2.5L7 9.917H5.333l-.833 2.5-.833-2.5H2l1.667 4.166h1.666l.834-2.5.833 2.5h1.667l1.666-4.166z"/>
</svg>
